%EDITED_04-21-2020_9525R003ADA-32,MX,
;O100.PIM ; PROGRAM NUMBER
;PROGRAM NAME - EDITED_04-21-2020_9525R003ADA-32.PIM
;POST -  DMS Router 5axis Fagor 8055
;DATE - TUE. 04/21/2020
;TIME - 09:52AM

;MACHINE SETUP - 1
;STANDARD FEATURE MILL HOLE - 0.0980
;DRILL
;#40 DRILL

N1 G70 G80 G90
N2 G44 G17
N3 G53
N4 G0 Z0.0
N5 T1 D1
N6 M6
N7 S7800 M3
N8 G4 K300
N9 G43
N10 D1
N11 G54
N12 X12.2156 Y21.6652 Z.335
N13 G98 G81 X12.2156 Y21.6652 Z.335 I-.0394 F19.685
N14 X14.0382 Y3.6672
N15 G80
N16 G0 Z1.135
N17 M5
N18 M21
N19 G53
N20 Z0.0

;FEATURE MILL HOLE - 0.1250 - 0.1250
;DRILL
;1/8 DRILL

N21 T2 D2
N22 M6
N23 S10000 M3
N24 G4 K300
N25 G43
N26 D2
N27 G54
N28 G0 X-18.3862 Y9.4801 Z.335
N29 G98 G81 X-18.3862 Y9.4801 Z.335 I-.0476 F19.685
N30 X-5.2048 Y28.5657
N31 X15.4592 Y43.6332
N32 X83.6218
N33 X103.8554 Y28.5657
N34 X117.2009 Y9.4801
N35 G80
N36 G0 Z1.135
N37 M5
N38 M21
N39 G53
N40 Z0.0

;STANDARD FEATURE MILL HOLE - 0.2500
;DRILL
;1/4 DRILL

N41 T3 D3
N42 M6
N43 S4100 M3
N44 G4 K300
N45 G43
N46 D3
N47 G54
N48 G0 X1.5 Y36.2088 Z.335
N49 G98 G81 X1.5 Y36.2088 Z.335 I-.0851 F19.685
N50 X3.19 Y31.2261
N51 X26.19 Y43.7009
N52 X72.19
N53 X95.19 Y31.2261
N54 X113.29 Y-6.702
N55 X95.19
N56 X72.19
N57 X49.19
N58 X26.19
N59 X3.19
N60 X-14.91
N61 G80
N62 G0 Z1.135
N63 M5
N64 M21
N65 G53
N66 Z0.0

;FEATURE 2 AXIS
;PROFILE FINISH
;5/16 ROUTER - SINGLE FLUTE

N67 T4 D4
N68 M6
N69 S16000 M3
N70 G4 K300
N71 G43
N72 D4
N73 G54
N74 G0 X2.8438 Y35.9443
N75 Z.335
N76 G1  Z.135 F19.685
N77 Y35.865 Z.1308
N78 X.1563 Z-.01
N79 Y38.5525
N80 X2.8438
N81 Y35.865
N82 X.1563
N83 G0 Z.335
N84 Z1.135

;FEATURE 2 AXIS - .312 DIA ENDMILL
;PROFILE FINISH
;5/16 ROUTER - SINGLE FLUTE

N85 S16000
N86 G53 Z0.0
N87 G54
N88 G0 G43
N89 X29.1298 Y45.1101
N90 Z.335
N91 G1 Z.135 F19.685
N92 G17 G2 X31.8099 Y45.7952 I19.5191 J-70.7727 Z-.01
N93 G1 X31.8103 Y45.7953
N94 X32.2406 Y45.8955
N95 X32.2413 Y45.8956
N96 G2 X34.0925 Y46.3034 I28.9839 J-127.1638
N97 G2 X36.3583 Y46.7782 I58.1461 J-271.8426
N98 G2 X36.44 Y46.7865 I.0817 J-.398
N99 G2 X36.8462 Y46.3803 I0. J-.4062
N100 G1 Y46.2269
N101 G3 X36.94 Y46.1331 I.0938 J0.
N102 G3 X36.9586 Y46.135 I0. J.0937
N103 G2 X41.0583 Y46.8326 I13.3529 J-66.0703
N104 G2 X46.1144 Y47.3305 I8.7824 J-63.2696
N105 G1 X48.5859 Y47.4741
N106 G2 X49.1285 Y47.4956 I.6847 J-10.3883
N107 G1 X49.1293
N108 G2 X49.1891 Y47.4959 I.0597 J-7.3071
N109 G2 X49.4537 Y47.4911 I0. J-7.3073
N110 G1 X49.4541
N111 G2 X49.7938 Y47.4741 I-.567 J-14.734
N112 G1 X52.2654 Y47.3305
N113 G2 X53.2499 Y47.2713 I-9.1506 J-160.3669
N114 G2 X54.3641 Y47.1911 I-4.0918 J-64.6599
N115 G2 X56.4085 Y46.9818 I-3.8063 J-47.2573
N116 G1 X56.4088
N117 G2 X58.7619 Y46.6327 I-6.7166 J-53.3886
N118 G2 X61.4213 Y46.135 I-14.7522 J-86.1763
N119 G3 X61.44 Y46.1331 I.0187 J.0919
N120 G3 X61.5338 Y46.2269 I0. J.0938
N121 G1 Y46.3803
N122 G2 X61.94 Y46.7865 I.4063 J0.
N123 G2 X62.0215 Y46.7783 I0. J-.4063
N124 G2 X63.876 Y46.3911 I-54.7528 J-266.9114
N125 G2 X66.1342 Y45.8967 I-30.3311 J-143.924
N126 G1 X66.1345 Y45.8966
N127 G2 X72.0921 Y44.2642 I-16.5453 J-72.0726
N128 G2 X79.12 Y41.6121 I-22.1583 J-69.3559
N129 G2 X86.6748 Y37.7588 I-28.7063 J-65.6136
N130 G2 X93.1405 Y33.4672 I-35.7185 J-60.8305
N131 G2 X99.1388 Y28.4437 I-41.6718 J-55.8508
N132 G2 X106.3934 Y20.4881 I-47.1756 J-50.3041
N133 G2 X111.8208 Y12.3801 I-54.1006 J-42.0847
N134 G2 X118.6164 Y-4.287 I-59.7149 J-34.0663
N135 G2 X118.7142 Y-4.7121 I-6.9141 J-1.8151
N136 G2 X118.789 Y-5.1933 I-5.5492 J-1.1087
N137 G2 X118.8132 Y-5.6254 I-3.8405 J-.432
N138 G2 X118.8132 Y-5.6273 I-3.8647 J0.
N139 G2 X118.8132 Y-5.6319 I-2.4765 J-.0046
N140 G2 X118.7779 Y-6.0489 I-2.4765 J0.
N141 G1 X118.7778 Y-6.0493
N142 G2 X118.7128 Y-6.306 I-1.7149 J.2978
N143 G2 X118.5877 Y-6.5769 I-1.295 J.4335
N144 G1 X118.5876 Y-6.5772
N145 G2 X118.2268 Y-6.953 I-1.016 J.6143
N146 G2 X118.0286 Y-7.062 I-.7524 J1.1337
N147 G1 X118.0284 Y-7.0621
N148 G2 X117.7474 Y-7.1584 I-.6906 J1.5552
N149 G2 X117.4513 Y-7.212 I-.5576 J2.2373
N150 G2 X117.0754 Y-7.2333 I-.376 J3.3135
N151 G2 X117.0638 Y-7.2332 I0. J3.3348
N152 G1 X-18.7039
N153 G2 X-18.7207 Y-7.2333 I-.0169 J3.2206
N154 G2 X-19.1525 Y-7.2042 I0. J3.2207
N155 G2 X-19.5884 Y-7.0971 I.2661 J2.0239
N156 G1 X-19.5887 Y-7.097
N157 G2 X-19.9197 Y-6.921 I.4787 J1.2999
N158 G1 X-19.9204 Y-6.9206
N159 G2 X-20.1788 Y-6.6609 I.6815 J.9365
N160 G1 X-20.179 Y-6.6606
N161 G2 X-20.2995 Y-6.4517 I1.0012 J.7172
N162 G1 X-20.2997 Y-6.4514
N163 G2 X-20.3925 Y-6.1771 I1.3634 J.6139
N164 G2 X-20.4356 Y-5.9136 I1.9199 J.45
N165 G2 X-20.4478 Y-5.6598 I2.65 J.2538
N166 G2 X-20.4475 Y-5.6237 I2.6621 J0.
N167 G1 Y-5.6231
N168 G2 X-20.3995 Y-5.0626 I4.1147 J-.0699
N169 G2 X-20.2363 Y-4.2866 I7.2178 J-1.1131
N170 G2 X-13.806 Y11.7321 I66.5257 J-17.4051
N171 G2 X-3.8796 Y25.3234 I59.9705 J-33.379
N172 G2 X4.1768 Y32.6583 I50.6252 J-47.5134
N173 G2 X13.2212 Y38.6244 I43.252 J-55.7301
N174 G2 X21.5093 Y42.5519 I34.8777 J-62.8929
N175 G2 X31.8099 Y45.7952 I27.1396 J-68.2145
N176 G1 X31.8103 Y45.7953
N177 G0 Z.335
N178 Z1.135
N179 M5
N180 G70 G80 G90
N181 G40 G44
N182 M5
N183 M21
N184 G0 G90 G53 Z0.
N185 G0 G90 G53 X0.0 Y0.0
N186 M30
